X: 22
T: Con tutta gentile\cca
N: Derived from Bus3015-Con_tutta_gentileca.krn
C: Antoine Busnoys
%%abc-version 2.0
%%abcx-abcm2ps-target-version 5.9.1 (29 Sep 2008)
%%abc-creator hum2abc beta
%%abcx-conversion-date 2019/02/16 20:26:07
%%abc-edited-by Jesse Rodin
%%abc-edited-by Chris Gage 04-20-2015
%%abcx-initial-encoding-date 2015/05/01/
%%humdrum-veritas 2525606288
%%humdrum-veritas-data 1099832569
%%linebreak <none>
%%barnumbers 0
L: 1/4
M: 2/1
Q: 1/2=120
V: 1 clef=treble
V: 2 clef=treble-8
V: 3 clef=bass
K: F
[V:1] G8 | 
[V:2] G8 | 
[V:3] G,,8 | 
[V:1] D4E4 | 
[V:2] B4c4 | 
[V:3] G,4C,4 | 
[V:1] ^F6EF | 
[V:2] A8 | 
[V:3] D,8 | 
[V:1] G8 | 
[V:2] G2B4c2 | 
[V:3] G,,8 | 
[V:1] F4G4 | 
[V:2] A2GAB2AG | 
[V:3] A,,4G,,4 | 
[V:1] A4G2B2- | 
[V:2] F4G4- | 
[V:3] D,4G,,4- | 
[V:1] B2A2F2EF | 
[V:2] G4A4 | 
[V:3] G,,4D,4 | 
[V:1] G3FD4 | 
[V:2] B6G2 | 
[V:3] G,,3A,,B,,4 | 
[V:1] z4D4 | 
[V:2] A2GAB2G2- | 
[V:3] C,4B,,4 | 
[V:1] E4F4 | 
[V:2] G2A4B2- | 
[V:3] C,4D,4 | 
[V:1] G4A4 | 
[V:2] B2c4Bc | 
[V:3] _E,4F,4 | 
[V:1] !fermata!^F8 | 
[V:2] !fermata!d8 | 
[V:3] !fermata!D,8 | 
[V:1] G8 | 
[V:2] z8 | 
[V:3] G,6E,2 | 
[V:1] A4G2B2- | 
[V:2] z4G4- | 
[V:3] F,4B,3A, | 
[V:1] B2A2^F3E | 
[V:2] G4A4 | 
[V:3] G,2F,E,D,4 | 
[V:1] G3FD4 | 
[V:2] G2B4AG | 
[V:3] G,,3A,,B,,3C, | 
[V:1] A4B4- | 
[V:2] ^F3EG4 | 
[V:3] D,4G,,4 | 
[V:1] B2A2G4 | 
[V:2] B6c2 | 
[V:3] G,6F,E, | 
[V:1] F4G2B2- | 
[V:2] d4G4 | 
[V:3] D,4E,2G,2- | 
[V:1] BAA4B2 | 
[V:2] d4c2d2 | 
[V:3] G,F,F,3E,D,2 | 
[V:1] c2A2B2A2- | 
[V:2] _e2c2d4 | 
[V:3] C,4G,2D,2 | 
[V:1] AGG4^F2 | 
[V:2] c2B2A4 | 
[V:3] F,2G,2D,4 | 
[V:1] G8 | 
[V:2] z4G4 | 
[V:3] G,4z4 | 
[V:1] z4G4 | 
[V:2] B4c4 | 
[V:3] G,4E,4 | 
[V:1] F6ED | 
[V:2] d8 | 
[V:3] D,8 | 
[V:1] E4D4- | 
[V:2] g4f4- | 
[V:3] C,4D,4 | 
[V:1] D4C4 | 
[V:2] f2ede4 | 
[V:3] B,,4C,4 | 
[V:1] B,2D3CB,2 | 
[V:2] d8 | 
[V:3] D,6E,2 | 
[V:1] A,4G,4 | 
[V:2] c4B2d2- | 
[V:3] F,4G,4- | 
[V:1] z4F4 | 
[V:2] dcB2A4 | 
[V:3] G,4D,4 | 
[V:1] G4A4 | 
[V:2] G4z4 | 
[V:3] E,4D,4 | 
[V:1] B4A2F2- | 
[V:2] G4A4 | 
[V:3] G,,4D,4 | 
[V:1] F2G2A2GA | 
[V:2] B3AF4 | 
[V:3] B,,4A,,4 | 
[V:1] B2AGF2G2- | 
[V:2] G2A2B4 | 
[V:3] G,,4z2G,,2 | 
[V:1] GFB4A2 | 
[V:2] A2B2c4 | 
[V:3] D,2G,2F,4 | 
[V:1] B4z4 | 
[V:2] B3GB2A2- | 
[V:3] G,4D,2C,2 | 
[V:1] z8 | 
[V:2] AGG4^F2 | 
[V:3] D,2B,,2A,,4 | 
[V:1] B4A2c2 | 
[V:2] G4F4 | 
[V:3] G,,4z4 | 
[V:1] B2AG^F4 | 
[V:2] z2G2A4 | 
[V:3] G,,4D,4 | 
[V:1] G4z2A2 | 
[V:2] B4A2F2 | 
[V:3] G,4F,4 | 
[V:1] B4A2F2 | 
[V:2] G2FGA2d2- | 
[V:3] E,4F,2D,2 | 
[V:1] G4F2B2- | 
[V:2] d2^c2d4- | 
[V:3] E,4D,2G,2- | 
[V:1] BAA3GF2 | 
[V:2] d4d4 | 
[V:3] G,2F,3E,D,2 | 
[V:1] G2E2D2F2- | 
[V:2] e4f3e | 
[V:3] C,4D,4- | 
[V:1] FGA4B2- | 
[V:2] d6B2 | 
[V:3] D,4z2G,2 | 
[V:1] BAc3BA2- | 
[V:2] c4d4 | 
[V:3] F,2A,2G,2D,2 | 
[V:1] AGG3E^F2 | 
[V:2] c2B2A4 | 
[V:3] F,2G,2D,4 | 
[V:1] G8 |]  
[V:2] G8 |]  
[V:3] G,,8 |]  



